X:1
T:Scilly Rocks
M:6/8
L:1/8
K:C
 G| E2 C EEG| c2 c c2 B| A2 GF-E F| D3- D2 G| E2 C E2 G| c2 c c2 c|\
 d2 G A2 A| G3- G2 z| c2 c c2 B| A2 G c2 E| F2 E D2 C| G3- G2 A| AAF cBA|\
G-F G C2 E| G G2 G2 B,| C3- C2||

